X: 13
T:Tone Rowe's
M:6/8
L:1/8
C:Traditional, arr. Roger Landes
R:Jig
K:D
FFF AFE | EDB ABD | FFF GGG | ABF A/B/AG | FFF AFE | EDB ABD | FFF GGG |1 BAF D2 E :|2 BAF D2 g ||
f/g/f d dcd | edc Bcd | f/g/f d dcd | ABF A2 g | f/g/f d dcd | edc Bcd | faf g/f/e c |1 dAF D2 g :|2 dAF D2 E ||
